X:29
T:I Bryllaupsgarden, pols
C:etter Vidar Lande
L:1/8
M:3/4
O:Norway
A:Sor Tr\ondelag, R\oros
R:R\oros Pols
Z:Carol Turner
Q:1/4=145
K:D
% %rightmargin 11.5cm
[V:1]"Intro"c2 e>c A>c | d2 d4 ||
[V:2]A2 (A>E) C>E | D2 D4 ||
% %rightmargin 2.78cm
%P:A
[V:1] A/ |: "D"F2 (A>F) D>(F | "Em"G2) (B>G) E2 | "A7"c2 (e>c) A>(c  |1 "D"d2) (f>d) "A7"A>G :|2 "D"d2 d4 :|
[V:2] z/ |: D2 (F>D) A,>(D | E2) (E>C) G,B, | E2 (E>C) E>(G |1 F2) (F>A) G>E :|2 F2 F4 :|
%P:B
[V:1] |:"D"f2 (f<d) f>(a | "Em"g2) (g<f) e>(d |1 "A7"c2) (e<c) e>(g | "D"f2) (f<e) d2 :|2 "A7"c2 (e<c) ((3AB)c | "D"d2 d4 :|
[V:2] |: d2 (d>A) F>(A | B2) (B>G) E>(G |1 A2) (A>E) G>(C | D2) (D>F) A>c :|2 A2 (A>E) C>E | D2 D4 :|

